config/includes.chroot/usr/share/icons/Tela-circle/32/devices/input-touchpad.svg

<svg width="32" height="32" version="1" xmlns="http://www.w3.org/2000/svg" xmlns:xlink="http://www.w3.org/1999/xlink">
 <circle cx="16" cy="16" r="14" fill="#4d4d4d" stroke-width=".53846" style="paint-order:stroke markers fill"/>
 <path d="m23 9v1h4.5273a13 13 0 0 0-0.57422-1h-3.9531zm0 2v1h5.3516a13 13 0 0 0-0.36328-1h-4.9883zm0 2v1h5.8359a13 13 0 0 0-0.20313-1h-5.6328zm0 2v1h6a13 13 0 0 0-0.042969-1h-5.957zm0 2v1h5.8281a13 13 0 0 0 0.12305-1h-5.9512zm-18.527 5a13 13 0 0 0 6.5352 6h2.9922c0.554 0 1-0.446 1-1v-4c0-0.554-0.446-1-1-1h-9.5273zm13.527 0c-0.554 0-1 0.446-1 1v4c0 0.554 0.446 1 1 1h2.9727a13 13 0 0 0 6.5488-6h-9.5215z" opacity=".45" stroke-width="3.6024"/>
</svg>

<svg width="32" height="32" version="1" xmlns="http://www.w3.org/2000/svg"><circle cx="16" cy="16" r="14" fill="#4d4d4d" style="paint-order:stroke markers fill"/><path d="M23 9v1h4.527a13 13 0 0 0-.574-1H23zm0 2v1h5.352a13 13 0 0 0-.364-1H23zm0 2v1h5.836a13 13 0 0 0-.203-1H23zm0 2v1h6a13 13 0 0 0-.043-1H23zm0 2v1h5.828a13 13 0 0 0 .123-1H23zM4.473 22a13 13 0 0 0 6.535 6H14c.554 0 1-.446 1-1v-4c0-.554-.446-1-1-1H4.473zM18 22c-.554 0-1 .446-1 1v4c0 .554.446 1 1 1h2.973a13 13 0 0 0 6.549-6H18z" opacity=".45"/></svg>
